docs/public/static/branding/companies/amazon-light.svg

<svg width="80" height="23" viewBox="0 0 80 23" fill="none" xmlns="http://www.w3.org/2000/svg">
<path d="M44.0515 2.50718V0.778454C44.0534 0.515318 44.2518 0.339339 44.4917 0.339339H52.244C52.4937 0.339339 52.6917 0.520319 52.6917 0.776906V2.26214C52.6887 2.5073 52.479 2.83342 52.1078 3.34969L48.0888 9.08309C49.5802 9.0482 51.1582 9.27097 52.5134 10.0332C52.8187 10.2056 52.9017 10.457 52.9249 10.7069V12.5557C52.9249 12.8112 52.6458 13.1063 52.3554 12.9526C49.9667 11.6996 46.7999 11.5634 44.1617 12.9676C43.8914 13.112 43.6101 12.8228 43.6101 12.5673V10.8086C43.6101 10.5283 43.6147 10.0476 43.898 9.61996L48.5501 2.94439H44.5003C44.2529 2.94427 44.0544 2.76781 44.0515 2.50718V2.50718ZM15.7714 13.3166H13.4125C13.188 13.3029 13.0072 13.1341 12.9905 12.9184L12.9926 0.807985C12.9926 0.566518 13.1947 0.371846 13.4472 0.371846L15.6438 0.37101C15.8739 0.383631 16.0579 0.557467 16.073 0.778454V2.36013H16.1162C16.6874 0.830843 17.7678 0.11609 19.2196 0.11609C20.6959 0.11609 21.618 0.830843 22.2804 2.36013C22.8533 0.830843 24.1512 0.11609 25.5397 0.11609C26.5311 0.11609 27.6088 0.524606 28.2704 1.44213C29.0199 2.45872 28.865 3.93919 28.865 5.23606L28.864 12.88C28.864 13.1229 28.6584 13.3165 28.4081 13.3165H26.0529C25.8151 13.3028 25.6294 13.1146 25.6294 12.8825L25.6284 6.46053C25.6284 5.95141 25.6715 4.67871 25.5613 4.19232C25.3838 3.37731 24.8558 3.14799 24.1733 3.14799C23.6033 3.14799 23.0075 3.53043 22.7645 4.14219C22.5235 4.75431 22.5445 5.77138 22.5445 6.46053V12.8798C22.5445 13.1226 22.3406 13.3162 22.0894 13.3162H19.7337C19.4965 13.3026 19.3096 13.1143 19.3096 12.8823L19.3066 6.46029C19.3066 5.10877 19.5279 3.12239 17.8553 3.12239C16.1584 3.12239 16.2249 5.06091 16.2249 6.46029L16.224 12.8795C16.2237 13.123 16.0239 13.3166 15.7714 13.3166V13.3166ZM59.368 0.11621C62.8657 0.11621 64.7631 3.12299 64.7631 6.94513C64.7631 10.638 62.6673 13.5722 59.368 13.5722C55.9318 13.5722 54.0588 10.56 54.0588 6.81618C54.0588 3.04714 55.953 0.11621 59.368 0.11621V0.11621ZM59.3904 2.58683C57.6485 2.58683 57.538 4.95947 57.538 6.43279C57.538 7.91147 57.5159 11.0699 59.3678 11.0699C61.1915 11.0699 61.2781 8.52276 61.2781 6.9724C61.2781 5.95176 61.2353 4.72919 60.9261 3.76011C60.6627 2.91784 60.134 2.58683 59.3904 2.58683V2.58683ZM69.3012 13.3166H66.9493C66.7116 13.3029 66.526 13.1147 66.526 12.8826L66.521 0.767739C66.5417 0.545561 66.737 0.371726 66.9751 0.371726L69.1654 0.37089C69.3726 0.381844 69.5421 0.522703 69.5848 0.711065V2.56207H69.6292C70.2894 0.907285 71.2104 0.11597 72.8401 0.11597C73.8984 0.11597 74.9354 0.498888 75.5959 1.54488C76.2088 2.51004 76.2088 4.14231 76.2088 5.31381V12.934C76.1815 13.151 75.9881 13.3165 75.7614 13.3165H73.3929C73.1777 13.3037 72.9991 13.1407 72.972 12.934V6.35909C72.972 5.03626 73.1285 3.09679 71.4961 3.09679C70.9226 3.09679 70.3998 3.48019 70.1341 4.06671C69.8044 4.80611 69.7611 5.54277 69.7611 6.35921V12.8801C69.7552 13.123 69.5523 13.3166 69.3012 13.3166V13.3166ZM11.1486 11.0946C10.7195 10.497 10.2605 10.0147 10.2605 8.90901V5.23308C10.2605 3.67784 10.3719 2.24845 9.22275 1.1759C8.31702 0.306358 6.81714 0 5.6685 0C3.42351 0 0.920024 0.837871 0.394109 3.61176C0.338148 3.90847 0.552944 4.06242 0.746546 4.106L3.03285 4.35378C3.24539 4.34282 3.40148 4.131 3.44244 3.91895C3.63914 2.96225 4.43962 2.50158 5.33929 2.50158C5.82293 2.50158 6.37469 2.68137 6.66295 3.11537C6.99383 3.59937 6.94942 4.26495 6.94942 4.82683V5.13056C5.5804 5.28452 3.79262 5.3862 2.51468 5.94867C1.036 6.58853 0 7.88861 0 9.8057C0 12.2589 1.54358 13.4847 3.52793 13.4847C5.20855 13.4847 6.12262 13.0882 7.41878 11.7689C7.84742 12.389 7.98732 12.6882 8.7703 13.3422C8.9464 13.4354 9.1712 13.428 9.32801 13.2866L9.33324 13.2923C9.80463 12.8721 10.662 12.128 11.1413 11.7247C11.3326 11.5659 11.2988 11.3084 11.1486 11.0946V11.0946ZM6.50745 10.0348C6.13167 10.6955 5.53729 11.1047 4.87564 11.1047C3.97026 11.1047 3.4409 10.4147 3.4409 9.39587C3.4409 7.3877 5.24403 7.02336 6.94978 7.02336V7.53296C6.94978 8.44965 6.97133 9.2168 6.50745 10.0348V10.0348ZM42.0716 11.0946C41.6391 10.497 41.181 10.0147 41.181 8.90901V5.23308C41.181 3.67784 41.2915 2.24845 40.1422 1.1759C39.2405 0.306358 37.7385 0 36.5921 0C34.3476 0 31.8427 0.837871 31.3173 3.61176C31.2613 3.90847 31.4761 4.06242 31.6694 4.106L33.9542 4.35378C34.1701 4.34282 34.325 4.131 34.3653 3.91895C34.5631 2.96225 35.3602 2.50158 36.2611 2.50158C36.746 2.50158 37.2989 2.68137 37.5843 3.11537C37.9144 3.59937 37.8703 4.26495 37.8703 4.82683V5.13056C36.5031 5.28452 34.7163 5.3862 33.4375 5.94867C31.9588 6.58853 30.9214 7.88861 30.9214 9.8057C30.9214 12.2589 32.464 13.4847 34.4511 13.4847C36.1273 13.4847 37.0463 13.0882 38.341 11.7689C38.7687 12.389 38.9097 12.6882 39.6925 13.3422C39.8699 13.4354 40.0925 13.428 40.2484 13.2866L40.2536 13.2923C40.726 12.8721 41.5832 12.128 42.0649 11.7247C42.2568 11.5659 42.224 11.3084 42.0716 11.0946V11.0946ZM37.4287 10.0348C37.0559 10.6955 36.4591 11.1047 35.7969 11.1047C34.8915 11.1047 34.3644 10.4147 34.3644 9.39587C34.3644 7.3877 36.1652 7.02336 37.8706 7.02336V7.53296C37.8706 8.44965 37.8934 9.2168 37.4287 10.0348Z" fill="black"/>
<path d="M47.2009 18.0228C42.701 21.2347 36.433 22.9694 30.9031 22.9694C23.157 22.9694 16.2527 20.1655 10.9332 15.3619C10.4412 14.9175 10.7589 14.3964 11.3706 14.748C17.1575 18.0946 24.0927 20.0525 31.3696 20.0525C36.2769 20.0525 41.4893 19.0753 46.4425 16.9681C47.5256 16.5065 47.9745 17.4699 47.2009 18.0228Z" fill="#F9A51B"/>
<path d="M49.1239 15.8548C48.5547 15.1278 45.3769 15.5111 43.9491 15.6797C43.5194 15.7324 43.4494 15.3544 43.8411 15.0812C46.3758 13.3093 50.5309 13.8251 51.0113 14.41C51.4972 15.0116 50.883 19.1805 48.5083 21.1704C48.1422 21.4786 47.7984 21.3114 47.9596 20.9081C48.4926 19.5713 49.6901 16.5792 49.1239 15.8548V15.8548Z" fill="#F9A51B"/>
<path d="M78.8919 11.3389C79.1575 11.3389 79.3835 11.4323 79.5699 11.6193C79.756 11.8045 79.8499 12.0298 79.8499 12.2935C79.8499 12.5589 79.7562 12.7846 79.5699 12.971C79.3841 13.1581 79.1585 13.2518 78.8919 13.2518C78.626 13.2518 78.4003 13.1581 78.2145 12.971C78.0294 12.7846 77.9365 12.5587 77.9365 12.2935C77.9365 12.0298 78.0294 11.8045 78.2166 11.6193C78.4029 11.4323 78.6288 11.3389 78.8919 11.3389ZM79.9999 12.2913C79.9999 11.986 79.8912 11.7258 79.6755 11.511C79.4595 11.296 79.197 11.1885 78.8908 11.1885C78.5861 11.1885 78.3267 11.296 78.1104 11.511C77.8947 11.7269 77.7861 11.9867 77.7861 12.2913C77.7861 12.5983 77.8933 12.8602 78.1076 13.0759C78.3225 13.2934 78.5844 13.4022 78.8905 13.4022C79.1967 13.4022 79.459 13.2934 79.6752 13.0759C79.8912 12.8598 79.9999 12.5981 79.9999 12.2913V12.2913ZM79.185 12.0523C79.185 12.1435 79.143 12.2055 79.0586 12.2389C79.0116 12.2572 78.9429 12.2653 78.8514 12.2653H78.6553V11.8323H78.8401C78.9613 11.8323 79.0482 11.8461 79.1037 11.8761C79.1577 11.9063 79.185 11.9642 79.185 12.0523ZM78.4461 11.6818V12.8929H78.6552V12.4156H78.8264C78.9421 12.4156 79.0229 12.429 79.0684 12.4542C79.1466 12.5003 79.1849 12.5918 79.1849 12.7323V12.8283L79.1896 12.867L79.1922 12.8806C79.1941 12.8841 79.1948 12.8889 79.1958 12.8929H79.3946L79.3869 12.8774C79.3809 12.867 79.3776 12.8467 79.3757 12.8148C79.3732 12.7825 79.3732 12.7528 79.3732 12.7244V12.6364C79.3732 12.5752 79.3502 12.5124 79.3071 12.4477C79.2627 12.3839 79.194 12.3444 79.0988 12.3297C79.1737 12.3178 79.2321 12.2985 79.2745 12.2711C79.3546 12.2192 79.3947 12.1397 79.3947 12.0319C79.3947 11.88 79.3309 11.7779 79.205 11.7252C79.1344 11.6965 79.0236 11.682 78.8724 11.682L78.4461 11.6818Z" fill="black"/>
</svg>

<svg width="80" height="23" fill="none" xmlns="http://www.w3.org/2000/svg">
  <path d="M44.051 2.507V.778a.43.43 0 01.44-.439h7.753c.25 0 .448.181.448.438v1.485c-.003.245-.213.571-.584 1.088l-4.02 5.733c1.492-.035 3.07.188 4.425.95.306.173.389.424.412.674v1.849c0 .255-.28.55-.57.397-2.388-1.253-5.555-1.39-8.193.015-.27.144-.552-.145-.552-.4v-1.76c0-.28.005-.76.288-1.188l4.652-6.676H44.5a.433.433 0 01-.449-.437zm-28.28 10.81h-2.359a.442.442 0 01-.421-.399l.002-12.11c0-.241.202-.436.454-.436L15.644.37c.23.013.414.186.429.407V2.36h.043C16.687.83 17.768.116 19.22.116c1.476 0 2.398.715 3.06 2.244C22.853.83 24.151.116 25.54.116c.991 0 2.069.409 2.73 1.326.75 1.017.595 2.497.595 3.794l-.001 7.644a.446.446 0 01-.456.436h-2.355a.44.44 0 01-.424-.434V6.462c0-.51.043-1.782-.068-2.269-.177-.815-.705-1.044-1.388-1.044-.57 0-1.165.382-1.408.994-.242.612-.22 1.63-.22 2.319v6.419a.445.445 0 01-.456.436h-2.355a.441.441 0 01-.424-.434l-.003-6.422c0-1.351.22-3.338-1.452-3.338-1.697 0-1.63 1.939-1.63 3.338l-.001 6.42c0 .243-.2.437-.453.437zM59.368.117c3.498 0 5.395 3.006 5.395 6.828 0 3.693-2.096 6.627-5.395 6.627-3.436 0-5.31-3.012-5.31-6.756 0-3.769 1.895-6.7 5.31-6.7zm.022 2.47c-1.742 0-1.852 2.372-1.852 3.846 0 1.478-.022 4.637 1.83 4.637 1.823 0 1.91-2.547 1.91-4.098 0-1.02-.043-2.243-.352-3.212-.263-.842-.792-1.173-1.536-1.173zm9.911 10.73H66.95a.44.44 0 01-.423-.434L66.521.768a.448.448 0 01.454-.396l2.19-.001a.448.448 0 01.42.34v1.851h.044C70.29.907 71.21.116 72.84.116c1.058 0 2.095.383 2.756 1.429.613.965.613 2.597.613 3.769v7.62a.447.447 0 01-.448.383h-2.368a.45.45 0 01-.421-.383V6.359c0-1.323.157-3.262-1.476-3.262-.573 0-1.096.383-1.362.97-.33.74-.373 1.476-.373 2.292v6.521a.453.453 0 01-.46.437zM11.15 11.095c-.43-.598-.888-1.08-.888-2.186V5.233c0-1.555.11-2.985-1.038-4.057C8.317.306 6.817 0 5.668 0 3.424 0 .92.838.394 3.612c-.056.296.159.45.353.494l2.286.248c.212-.011.368-.223.41-.435.196-.957.997-1.417 1.896-1.417.484 0 1.036.18 1.324.613.33.484.286 1.15.286 1.712v.304c-1.369.154-3.156.255-4.434.818C1.036 6.589 0 7.889 0 9.806c0 2.453 1.544 3.679 3.528 3.679 1.68 0 2.595-.397 3.89-1.716.43.62.57.92 1.352 1.573.176.093.401.086.558-.055l.005.005a106.34 106.34 0 011.808-1.567c.192-.16.158-.417.008-.63zm-4.642-1.06c-.375.66-.97 1.07-1.631 1.07-.906 0-1.435-.69-1.435-1.71 0-2.007 1.803-2.372 3.509-2.372v.51c0 .917.021 1.684-.443 2.502zm35.565 1.06c-.433-.598-.891-1.08-.891-2.186V5.233c0-1.555.11-2.985-1.039-4.057C39.24.306 37.738 0 36.592 0c-2.244 0-4.75.838-5.275 3.612-.056.296.16.45.352.494l2.285.248c.216-.011.371-.223.411-.435.198-.957.995-1.417 1.896-1.417.485 0 1.038.18 1.323.613.33.484.286 1.15.286 1.712v.304c-1.367.154-3.154.255-4.432.818-1.48.64-2.517 1.94-2.517 3.857 0 2.453 1.543 3.679 3.53 3.679 1.676 0 2.595-.397 3.89-1.716.428.62.569.92 1.352 1.573.177.093.4.086.555-.055l.006.005c.472-.42 1.33-1.164 1.81-1.567.193-.16.16-.417.008-.63zm-4.643-1.06c-.373.66-.97 1.07-1.632 1.07-.905 0-1.433-.69-1.433-1.71 0-2.007 1.801-2.372 3.507-2.372v.51c0 .917.022 1.684-.442 2.502z" fill="#000"/>
  <path d="M47.2 18.023c-4.499 3.212-10.767 4.946-16.297 4.946-7.746 0-14.65-2.803-19.97-7.607-.492-.444-.174-.966.438-.614 5.786 3.347 12.722 5.304 19.999 5.304 4.907 0 10.12-.977 15.073-3.084 1.083-.462 1.532.502.758 1.055z" fill="#F9A51B"/>
  <path d="M49.124 15.855c-.57-.727-3.747-.344-5.175-.175-.43.052-.5-.326-.108-.599 2.535-1.772 6.69-1.256 7.17-.671.486.602-.128 4.77-2.503 6.76-.366.309-.71.141-.548-.262.533-1.337 1.73-4.329 1.164-5.053z" fill="#F9A51B"/>
  <path d="M78.892 11.339c.266 0 .492.093.678.28.186.186.28.41.28.675a.923.923 0 01-.28.677.92.92 0 01-.678.28.919.919 0 01-.677-.28.926.926 0 01-.279-.678c0-.263.093-.488.28-.674a.92.92 0 01.676-.28zM80 12.29c0-.305-.109-.565-.325-.78a1.073 1.073 0 00-.784-.322c-.305 0-.564.107-.78.322a1.064 1.064 0 00-.325.78c0 .307.107.57.322.785.215.217.476.326.782.326.307 0 .569-.109.785-.326A1.07 1.07 0 0080 12.29zm-.815-.239a.185.185 0 01-.126.187.602.602 0 01-.208.026h-.196v-.433h.185c.121 0 .208.014.264.044.054.03.081.088.081.176zm-.739-.37v1.21h.21v-.476h.17c.116 0 .197.013.242.038.079.046.117.138.117.278v.096l.005.039.002.014.004.012h.199l-.008-.016a.164.164 0 01-.011-.062c-.003-.032-.003-.062-.003-.09v-.089a.343.343 0 00-.066-.188.294.294 0 00-.208-.118.457.457 0 00.175-.059c.08-.052.12-.131.12-.24 0-.151-.063-.253-.189-.306a.945.945 0 00-.333-.043h-.426z" fill="#000"/>
</svg>
